X:1
T:The Trooper and the Tailor
M:6/8
L:1/8
K:G
 D| DBB BAB| dcB c2 B| BAG GBA| GFE D2 D| DBB BAB| dcB c2 B/2B/2| BAG FED|\
 G B2- B2 G| FGA D2 c| Bcd D2 c| BAG FED| G G2- G2||

